X:879
T:Rufty Tufty
C:John Playford, 1651
M:2/2
R:Reel
L:1/4
S:Colin Hume's website,  colinhume.com  - chords can also be printed below the stave.
Q:1/2=112
%%MIDI ratio 3 1
%%staffnonote 2
K:G
P:A
V:1
%%MIDI program 73     Flute
%%MIDI chordprog 45   Pizzicato Strings
%%MIDI bassprog 32    Acoustic Bass
%%MIDI control 10 0   Left speaker
"D"d2 de | "Bm"f2 ef | "Em"gg "A7"f>e | "D"d4 | "Bm"d2 de | "D"f2 ef | "G"gg "A7"f>e | "D"d3e/f/ |
V:2
%%MIDI program 70     Bassoon
%%MIDI control 10 127   Right speaker
F>G AA | BF B2 | BG ^cA | dA FA | B>A BF | AF A2 | Bd ^cA | d^c BA |
P:B
V:1
"C"gf "G/B"ed | "D/A"dc "Em"B>c | "G"dd "Am"cB | "D7"A2 "G"Ge/f/ | "C"gf "G/B"ed | "D/A"dc "Em"B>c | "G"dd "Am"cB | "D7"A2 "G"G2 |
V:2
GA BG | FA Ge/f/ | gf ed | dc B2 | GA BG | FA Ge/f/ | gf ed | dc B>c |
P:C
V:1
|: "G"B>c dd | "C"ec "G"d2 | "Em"B>c dd | "Am"ec "D7"dB/c/ | "G"dd "C"cB | "D7"A2 "G"G2 :|
V:2
|: d>B GB | cE GF | E>G BG | cA FD | G>F EG | FE/F/ G2 :|

